src/assets/vehicle-category.svg

<svg width="121" height="44" viewBox="0 0 121 44" fill="none" xmlns="http://www.w3.org/2000/svg">
<path d="M98.3306 43.8283C91.3558 43.8283 85.677 38.1495 85.677 31.1747C85.677 24.1998 91.3558 18.521 98.3306 18.521C105.305 18.521 110.984 24.1998 110.984 31.1747C110.984 38.1495 105.305 43.8283 98.3306 43.8283ZM98.3306 20.8538C92.6518 20.8538 88.0333 25.4723 88.0333 31.1511C88.0333 36.8299 92.6518 41.4484 98.3306 41.4484C104.009 41.4484 108.628 36.8299 108.628 31.1511C108.628 25.4723 104.009 20.8538 98.3306 20.8538ZM21.9374 43.8283C14.9625 43.8283 9.28369 38.1495 9.28369 31.1747C9.28369 24.1998 14.9625 18.521 21.9374 18.521C28.9122 18.521 34.591 24.1998 34.591 31.1747C34.591 38.1495 28.9122 43.8283 21.9374 43.8283ZM21.9374 20.8538C16.2585 20.8538 11.6401 25.4723 11.6401 31.1511C11.6401 36.8299 16.2585 41.472 21.9374 41.472C27.6162 41.472 32.2347 36.8535 32.2347 31.1747C32.2347 25.4958 27.6162 20.8538 21.9374 20.8538Z" fill="#024EC9"/>
<path d="M21.9378 37.9846C18.1912 37.9846 15.1279 34.9213 15.1279 31.1747C15.1279 27.428 18.1912 24.3648 21.9378 24.3648C25.6844 24.3648 28.7477 27.428 28.7477 31.1747C28.7477 34.9213 25.6844 37.9846 21.9378 37.9846ZM21.9378 26.6976C19.4872 26.6976 17.4843 28.7005 17.4843 31.1511C17.4843 33.6017 19.4872 35.6046 21.9378 35.6046C24.3884 35.6046 26.3913 33.6017 26.3913 31.1511C26.3913 28.7005 24.3884 26.6976 21.9378 26.6976ZM98.284 37.9846C94.5373 37.9846 91.4741 34.9213 91.4741 31.1747C91.4741 27.428 94.5373 24.3648 98.284 24.3648C102.031 24.3648 105.094 27.428 105.094 31.1747C105.094 34.9213 102.031 37.9846 98.284 37.9846ZM98.284 26.6976C95.8333 26.6976 93.8304 28.7005 93.8304 31.1511C93.8304 33.6017 95.8333 35.6046 98.284 35.6046C100.735 35.6046 102.737 33.6017 102.737 31.1511C102.737 28.7005 100.735 26.6976 98.284 26.6976Z" fill="#024EC9"/>
<path d="M116.64 37.9374H108.322V35.5811H115.462V31.1511C115.462 30.9862 115.485 30.8212 115.556 30.6798L118.007 25.0953L113.317 21.5843C108.133 17.6963 101.724 15.552 95.2442 15.552H85.3003C85.0647 15.552 84.829 15.4813 84.6405 15.3399L74.2018 8.24727C68.4994 4.38283 61.8545 2.3328 54.9739 2.3328H30.3264L2.35636 10.8864V12.0174H3.77018C4.42996 12.0174 4.94836 12.5358 4.94836 13.1956V23.328C4.94836 23.9878 4.42996 24.5062 3.77018 24.5062H2.35636V30.939L5.8909 35.5811H11.9232V37.9374H5.30181C4.9248 37.9374 4.59491 37.7725 4.35927 37.4662L0.235636 32.0465C0.0706909 31.8345 0 31.5988 0 31.3396V23.328C0 22.6682 0.5184 22.1498 1.17818 22.1498H2.592V14.3738H1.17818C0.5184 14.3738 0 13.8554 0 13.1956V10.0145C0 9.49614 0.329891 9.04843 0.824727 8.88348L29.808 0.0471265C29.9258 0.0235629 30.0436 0 30.1614 0H54.9739C62.3258 0 69.442 2.19142 75.5214 6.31505L85.6538 13.1956H95.2442C102.219 13.1956 109.147 15.5049 114.731 19.6992L120.174 23.7757C120.622 24.1056 120.764 24.6947 120.551 25.1895L117.818 31.4103V36.7593C117.818 37.419 117.3 37.9374 116.64 37.9374Z" fill="#024EC9"/>
<path d="M88.3164 35.5811H71.4448V37.9374H88.3164V35.5811Z" fill="#024EC9"/>
<path d="M66.7322 35.5811H31.9287V37.9374H66.7322V35.5811Z" fill="#024EC9"/>
<path d="M8.88328 24.5062H3.76998C3.1102 24.5062 2.5918 23.9878 2.5918 23.328V13.1956C2.5918 12.5358 3.1102 12.0174 3.76998 12.0174H8.90685C9.37812 12.0174 9.80227 12.3002 9.99078 12.7243L12.465 18.4974C12.6063 18.8273 12.5828 19.2279 12.4178 19.5342L9.94365 23.8935C9.70801 24.2705 9.30743 24.5062 8.88328 24.5062ZM4.94816 22.1498H8.19994L10.0379 18.898L8.12925 14.3738H4.94816V22.1498ZM77.9954 15.0807H60.3227C60.252 15.0807 60.2049 15.0807 60.1342 15.0571L36.4527 11.4048L36.8062 9.07199L60.4169 12.7243H74.3195L73.3534 12.041C67.5096 7.87024 60.629 5.65526 53.4421 5.65526H32.4469L26.2732 7.46966L32.117 8.36508L31.7636 10.6979L20.6887 9.00129C20.1467 8.90704 19.7226 8.45933 19.699 7.91737C19.6519 7.37541 20.0053 6.85701 20.5473 6.71562L31.9756 3.36959C32.0935 3.34603 32.1877 3.32246 32.3055 3.32246H53.4657C61.1474 3.32246 68.4993 5.67882 74.7436 10.1323L78.7023 12.96C79.1264 13.2663 79.2914 13.7847 79.15 14.2795C78.9615 14.7508 78.5138 15.0807 77.9954 15.0807Z" fill="#024EC9"/>
<path d="M45.9962 12.8893C45.9255 12.8893 45.8784 12.8893 45.8077 12.8657L41.0008 12.1353C40.4352 12.041 40.0111 11.5462 40.0111 10.9806V4.47709C40.0111 3.8173 40.5295 3.2989 41.1893 3.2989H45.9962C46.656 3.2989 47.1744 3.8173 47.1744 4.47709V11.6876C47.1744 12.041 47.033 12.3473 46.7738 12.583C46.5618 12.7715 46.279 12.8893 45.9962 12.8893ZM42.3674 9.94384L44.8181 10.3209V5.65527H42.3674V9.94384ZM83.9337 32.3293L45.6192 30.0436C45.2893 30.0201 44.983 29.8551 44.7709 29.5959L37.4898 20.4061C37.2541 20.1233 37.1834 19.7463 37.2777 19.3929C37.372 19.0394 37.6076 18.7566 37.9375 18.5917L45.5485 15.175C45.7606 15.0807 45.9727 15.0572 46.2083 15.0807L83.5331 20.736L83.1796 23.0688L46.1847 17.4842L40.2938 20.1233L46.3026 27.7108L84.0986 29.9729L83.9337 32.3293Z" fill="#024EC9"/>
<path d="M119.467 23.5636H112.163V25.92H119.467V23.5636Z" fill="#024EC9"/>
</svg>

<svg width="121" height="44" fill="none" xmlns="http://www.w3.org/2000/svg"><path d="M98.33 43.828c-6.974 0-12.653-5.678-12.653-12.653 0-6.975 5.679-12.654 12.654-12.654 6.974 0 12.653 5.679 12.653 12.654s-5.679 12.653-12.653 12.653zm0-22.974c-5.678 0-10.297 4.618-10.297 10.297s4.619 10.297 10.298 10.297c5.678 0 10.297-4.618 10.297-10.297s-4.619-10.297-10.297-10.297zM21.938 43.828c-6.975 0-12.653-5.678-12.653-12.653 0-6.975 5.678-12.654 12.653-12.654 6.975 0 12.654 5.679 12.654 12.654s-5.679 12.653-12.654 12.653zm0-22.974c-5.678 0-10.297 4.618-10.297 10.297s4.619 10.321 10.297 10.321c5.68 0 10.298-4.619 10.298-10.297 0-5.68-4.619-10.321-10.298-10.321z" fill="#024EC9"/><path d="M21.938 37.985c-3.747 0-6.81-3.064-6.81-6.81 0-3.747 3.063-6.81 6.81-6.81 3.746 0 6.81 3.063 6.81 6.81 0 3.746-3.064 6.81-6.81 6.81zm0-11.287a4.465 4.465 0 00-4.454 4.453 4.465 4.465 0 004.454 4.454 4.465 4.465 0 004.453-4.454 4.465 4.465 0 00-4.453-4.453zm76.346 11.287c-3.747 0-6.81-3.064-6.81-6.81 0-3.747 3.063-6.81 6.81-6.81 3.747 0 6.81 3.063 6.81 6.81 0 3.746-3.063 6.81-6.81 6.81zm0-11.287a4.465 4.465 0 00-4.454 4.453 4.465 4.465 0 004.454 4.454 4.464 4.464 0 004.453-4.454 4.464 4.464 0 00-4.453-4.453z" fill="#024EC9"/><path d="M116.64 37.937h-8.318v-2.356h7.14v-4.43c0-.165.023-.33.094-.471l2.451-5.585-4.69-3.51a30.289 30.289 0 00-18.073-6.033H85.3c-.235 0-.471-.07-.66-.212L74.203 8.247a34.148 34.148 0 00-19.228-5.914H30.326l-27.97 8.553v1.131H3.77c.66 0 1.178.519 1.178 1.179v10.132c0 .66-.518 1.178-1.178 1.178H2.356v6.433l3.535 4.642h6.032v2.356H5.302a1.16 1.16 0 01-.943-.47l-4.123-5.42A1.112 1.112 0 010 31.34v-8.012c0-.66.518-1.178 1.178-1.178h1.414v-7.776H1.178c-.66 0-1.178-.519-1.178-1.178v-3.181c0-.519.33-.967.825-1.132L29.808.047c.118-.023.236-.047.353-.047h24.813A36.5 36.5 0 0175.52 6.315l10.133 6.88h9.59c6.975 0 13.903 2.31 19.487 6.504l5.443 4.077c.448.33.59.919.377 1.413l-2.733 6.221v5.35c0 .659-.518 1.177-1.178 1.177z" fill="#024EC9"/><path d="M88.316 35.581H71.445v2.356h16.871v-2.356zm-21.584 0H31.93v2.356h34.803v-2.356zM8.883 24.506H3.77c-.66 0-1.178-.518-1.178-1.178V13.196c0-.66.518-1.179 1.178-1.179h5.137c.471 0 .895.283 1.084.707l2.474 5.773c.141.33.118.73-.047 1.037l-2.474 4.36a1.267 1.267 0 01-1.06.612zM4.948 22.15H8.2l1.838-3.252-1.909-4.524H4.95v7.776zm73.047-7.07H60.323c-.071 0-.118 0-.189-.023l-23.681-3.652.353-2.333 23.61 3.652H74.32l-.967-.683c-5.843-4.17-12.724-6.386-19.91-6.386H32.446L26.273 7.47l5.844.895-.353 2.333L20.689 9c-.542-.094-.966-.542-.99-1.084a1.146 1.146 0 01.848-1.201L31.976 3.37c.117-.024.212-.048.33-.048h21.16a36.43 36.43 0 0121.278 6.81l3.958 2.828c.424.306.59.825.448 1.32a1.252 1.252 0 01-1.155.8z" fill="#024EC9"/><path d="M45.996 12.89c-.07 0-.118 0-.188-.024L41 12.136a1.185 1.185 0 01-.99-1.155V4.477c0-.66.518-1.178 1.178-1.178h4.807c.66 0 1.178.518 1.178 1.178v7.21c0 .354-.141.66-.4.896a1.194 1.194 0 01-.778.306zm-3.629-2.946l2.451.377V5.655h-2.45v4.289zm41.567 22.385l-38.315-2.285a1.214 1.214 0 01-.848-.448l-7.281-9.19a1.122 1.122 0 01-.212-1.013c.094-.354.33-.636.66-.801l7.61-3.417c.213-.094.425-.118.66-.094l37.325 5.655-.353 2.333-36.995-5.585-5.891 2.64 6.009 7.587 37.796 2.262-.165 2.356zm35.533-8.765h-7.304v2.356h7.304v-2.356z" fill="#024EC9"/></svg>
